X:1
T:Is It Nothing to Thee?
T:Is It Nothing to Thee?
T:William Howard Doane
T:Daniel Boardman Purinton, 1899
T:Public Domain Courtesy of the Cyber Hymnal™
T:Public Domain Courtesy of the Cyber Hymnal™
C:William Howard Doane
Z:Public Domain
Z:Courtesy of the Cyber Hymnal™
%%score ( 1 2 ) 3
L:1/8
Q:1/4=88
M:4/4
K:Bb
V:1 treble 
V:2 treble 
V:3 bass 
V:1
"^1st Voice" [B,D][B,E] | [DF]<[DF] [DF]2 [DB]3 [FA]/[FA]/ | [FA]<[EG] [EG]2 [EG]2 [EG][EG] | %3
w: 1.~Is it|no- thing to thee, is it|no- thing to thee, That thy|
w: 2.~Is it|no- thing to thee, is it|no- thing to thee, That thy|
w: 3.~Is it|no- thing to thee, is it|no- thing to thee, That e-|
 [DF]2 [EF][EF] F2 [FB][GB] | [FA]2 [FB][FB] [Fc]2 [B,D][CE] | [DF]<[DF] [DF]2 [FB]3 [FA]/[FA]/ | %6
w: Lord and Re- deem- er His|love hath re- vealed? Is it|no- thing to thee, is it|
w: sin la- den feet from the|Sav- ior hath turned? Is it|no- thing to thee, is it|
w: ter- ni- ty com- eth and|death draw- eth near? Is it|no- thing to thee, is it|
 [FA]<[EG] [EG]2 [GB]2 [FA][EG] | [DF]2 [DF][DF] [CF]2 [FA][FB] | %8
w: no- thing to thee, That He|died on the cross and thy|
w: no- thing to thee, That the|voice of His mer- cy thy|
w: no- thing to thee? Canst thou|go when He call- eth, with-|
 [Fc]3 [FB] [FB]2"^2nd Voice Response" !fermata![Fd]>[FB] | [FA]<[EG] [EG]2 [GB]2 [FA][EG] | %10
w: par- don sealed? Oh, ’tis|some- thing to me, yes, ’tis|
w: heart hath spurned? Oh, ’tis|some- thing to me, yes, ’tis|
w: out a fear? Oh, ’tis|some- thing to me, yes, ’tis|
 [EG]<[DF] [DF]2 [DF]2 [B,D][CE] | [DF]2 [EF][EF] F2 [FB][FB] | [FA][FA] [FB]2 [Ec]2 [Fd]>[Ec] | %13
w: some- thing to me, That the|voice of His love still is|call- ing to- day; Oh, ’tis|
w: some- thing to me, That He|call- eth me back, where- so-|ev- er I roam, Oh, ’tis|
w: some- thing to me, When at|last I shall stand on e-|ter- ni- ty’s shore, Oh, ’tis|
 [DB]<[DB] [DB]2 [^Fd]2 [FA][FA] | G<[EG] [EG]2 [EB]2 [^CA][CG] | [DF]2 [DF][DF] [CF]2 [FA][FB] | %16
w: some- thing to me, yes, ’tis|some- thing to me; I will|hear from my heart and with|
w: some- thing to me, yes, ’tis|some- thing to me, That I|still may re- turn and be|
w: some- thing to me, yes, ’tis|some- thing to me, To be|ho- ly and hap- py for-|
 [Fc]3 [FB] [FB]2 z2 ||"^Refrain" d4- z z (d z/) (3[Gc][GB][FA] | F6 z2 | %19
w: joy o- bey.|||
w: wel- comed home.|Come, come, come, He’s call-|ing|
w: ev- er- more.|||
 c4- z z [_Ec][FA](3[=EG][FA][EG] | F6 z2 |!p! [B,D]2 z2 [EF]2 z2 | %22
w: |||
w: to- Haste, haste, no long- er|de-|lay, List,|
w: |||
!fff! (3[DB][DB][DB] (3[DB][DB][DB] [^Fd]4 | G4 [DF]3 [DB] | [Ec]3 [DB] [DB]6 |] %25
w: |||
w: list, Je- sus is call- ing thee|now, Come, come,|be- fore Him|
w: |||
V:2
 x2 | x8 | x8 | x4 F2 x2 | x8 | x8 | x8 | x8 | x8 | x8 | x8 | x4 F2 x2 | x8 | x8 | G/ x15/2 | x8 | %16
 x8 || FFF3/2AF/ x9/2 | (D2 (3DDD D2) x2 | =EE x8 | (F2 (3DDD E2) x2 | x8 | x8 | G4 x4 | x10 |] %25
V:3
 [B,,F,][B,,F,] | [B,,B,]<[B,,B,] [B,,B,]2 [B,,F,]3 [D,B,]/[D,B,]/ | %2
 [E,B,]<[E,B,] [E,B,]2 [E,B,]2 [E,B,][E,B,] | [B,,B,]2 [C,A,][C,A,] [D,B,]2 [B,,D][B,,D] | %4
 [F,C]2 [F,D][F,D] [F,E]2 [B,,F,B,][B,,F,B,] | %5
 [B,,F,B,]<[B,,F,B,] [B,,F,B,]2 [B,,D]3 [D,B,]/[D,B,]/ | %6
 [E,B,]<[E,B,] [E,B,]2 [E,B,]2 [E,B,][E,B,] | [F,B,]2 [F,B,][F,B,] [F,A,]2 [F,C][F,D] | %8
 [F,E]3 [B,,D] [B,,D]2 !fermata![B,,B,]>[D,B,] | [E,B,]<[E,B,] [E,B,]2 [E,B,]2 [E,B,][E,B,] | %10
 [B,,B,]<[B,,B,] [B,,B,]2 [B,,B,]2 [B,,F,][B,,F,] | [B,,B,]2 [C,A,][C,A,] [D,B,]2 [B,,D][B,,D] | %12
 [F,C][F,C] [F,D]2 [F,A,]2 [F,A,]>[^F,A,] | [G,B,]<[G,B,] [G,B,]2 [D,A,]2 [D,D][D,C] | %14
 [E,B,]<[E,B,] [E,B,]2 [E,G,]2 [=E,G,][E,B,] | [F,B,]2 [F,B,][F,B,] [F,A,]2 [F,C][F,D] | %16
 [F,E]3 [B,,D] [B,,D]2 z2 || [B,,B,] z [B,,B,] z [B,,B,]>[D,B,] (3[E,E][E,E][E,B,] x3/2 | %18
 [B,,B,]2 (3[B,,B,][B,,B,][B,,B,] [B,,B,]2 z2 | %19
 [F,A,] z [F,A,] z [F,A,]>[F,C] (3[C,B,][C,C][C,B,] x2 | [F,A,]2 (3[F,B,][F,B,][F,B,] [F,C]2 z2 | %21
 [B,,B,]2 z2 [A,,C]2 z2 | (3[G,,B,][G,B,][G,B,] (3[G,B,][G,B,][G,B,] [D,A,]4 | %23
 [E,B,]2 [E,B,]2 [F,B,]3 [F,B,] | [F,A,]3 [B,,F,] [B,,F,]6 |] %25

